src/xmb/monochrome/setting.svg

<?xml version="1.0" encoding="UTF-8" standalone="no"?>
<!-- Generator: Adobe Illustrator 16.0.0, SVG Export Plug-In . SVG Version: 6.00 Build 0)  -->

<svg
   xmlns:dc="http://purl.org/dc/elements/1.1/"
   xmlns:cc="http://creativecommons.org/ns#"
   xmlns:rdf="http://www.w3.org/1999/02/22-rdf-syntax-ns#"
   xmlns:svg="http://www.w3.org/2000/svg"
   xmlns="http://www.w3.org/2000/svg"
   xmlns:sodipodi="http://sodipodi.sourceforge.net/DTD/sodipodi-0.dtd"
   xmlns:inkscape="http://www.inkscape.org/namespaces/inkscape"
   version="1.1"
   id="svg2"
   inkscape:export-filename="/home/kivutar/Bureau/lakka-menu/reload.png"
   inkscape:export-xdpi="90"
   inkscape:version="0.92.3 (2405546, 2018-03-11)"
   inkscape:export-ydpi="90"
   sodipodi:docname="setting.svg"
   x="0px"
   y="0px"
   width="64px"
   height="64px"
   viewBox="0 128 64 64"
   enable-background="new 0 128 64 64"
   xml:space="preserve"><metadata
   id="metadata8"><rdf:RDF><cc:Work
       rdf:about=""><dc:format>image/svg+xml</dc:format><dc:type
         rdf:resource="http://purl.org/dc/dcmitype/StillImage" /></cc:Work></rdf:RDF></metadata><defs
   id="defs6" /><sodipodi:namedview
   pagecolor="#808080"
   bordercolor="#666666"
   borderopacity="1"
   objecttolerance="10"
   gridtolerance="10"
   guidetolerance="10"
   inkscape:pageopacity="0"
   inkscape:pageshadow="2"
   inkscape:window-width="1024"
   inkscape:window-height="705"
   id="namedview4"
   showgrid="true"
   inkscape:zoom="10.429825"
   inkscape:cx="32.052918"
   inkscape:cy="30.067317"
   inkscape:window-x="-8"
   inkscape:window-y="-8"
   inkscape:window-maximized="1"
   inkscape:current-layer="svg2"><inkscape:grid
     type="xygrid"
     id="grid815" /></sodipodi:namedview>
<path
   style="opacity:0.98999999;vector-effect:none;fill:#ffffff;fill-opacity:1;stroke:none;stroke-width:2;stroke-linecap:butt;stroke-linejoin:miter;stroke-miterlimit:4;stroke-dasharray:none;stroke-dashoffset:0;stroke-opacity:1"
   d="M 27 14 C 26.066 14 25.365281 14.103969 24.488281 14.292969 L 24.271484 16.792969 C 22.648484 17.268969 21.189047 18.126672 19.998047 19.263672 L 17.724609 18.197266 C 16.503609 19.539266 15.567 21.232953 15 23.001953 L 17.060547 24.351562 C 16.867547 25.143563 16.763672 25.968312 16.763672 26.820312 C 16.763672 27.670313 16.867547 28.495109 17.060547 29.287109 L 15 30.722656 C 15.566 32.492656 16.503609 34.0955 17.724609 35.4375 L 19.998047 34.373047 C 21.189047 35.512047 22.648484 36.36875 24.271484 36.84375 L 24.488281 39.34375 C 25.365281 39.53275 26.274984 39.636719 27.208984 39.636719 C 28.144984 39.636719 29.052641 39.53275 29.931641 39.34375 L 30.146484 36.84375 C 31.769484 36.36875 33.228922 35.512047 34.419922 34.373047 L 36.695312 35.4375 C 37.914313 34.0955 38.850969 32.492656 39.417969 30.722656 L 37.359375 29.285156 C 37.553375 28.493156 37.654297 27.668359 37.654297 26.818359 C 37.654297 25.966359 37.552375 25.141609 37.359375 24.349609 L 39.417969 22.910156 C 38.851969 21.141156 37.914313 19.539266 36.695312 18.197266 L 34.419922 19.261719 C 33.228922 18.124719 31.769484 17.267016 30.146484 16.791016 L 29.931641 14.292969 C 29.052641 14.104969 27.936 14 27 14 z M 27 22 A 5 5 0 0 1 32 27 A 5 5 0 0 1 27 32 A 5 5 0 0 1 22 27 A 5 5 0 0 1 27 22 z "
   transform="translate(0,128)"
   id="path822" /><path
   style="fill:#ffffff"
   d="m 41.103516,33.929688 c -0.286375,5e-4 -0.576188,0.01683 -0.867188,0.04883 -0.584,0.064 -1.142734,0.19014 -1.677734,0.36914 l 0.03711,1.574219 c -0.98,0.406 -1.83014,1.042031 -2.494141,1.832031 l -1.492187,-0.505859 c -0.668,0.921 -1.143,1.983953 -1.375,3.126953 l 1.384766,0.755859 c -0.066,0.507 -0.07362,1.028594 -0.01563,1.558594 0.059,0.53 0.179515,1.038531 0.353515,1.519531 l -1.183593,1.039063 c 0.475,1.063 1.168437,1.999 2.023437,2.75 l 1.34375,-0.818359 c 0.822,0.627 1.790937,1.061093 2.835937,1.246093 l 0.306641,1.542969 c 0.129,0.014 0.3125,0.0293 0.3125,0.0293 1,0 2.549031,-0.224297 3.082031,-0.404297 l -0.03516,-1.572266 c 0.979,-0.408 1.828188,-1.043984 2.492188,-1.833984 l 1.49414,0.505859 c 0.668,-0.92 1.143047,-1.982 1.373047,-3.125 L 47.617188,42.8125 c 0.064,-0.508 0.07163,-1.027594 0.01562,-1.558594 -0.059,-0.531 -0.180468,-1.039484 -0.355468,-1.521484 l 1.185547,-1.03711 c -0.473,-1.062999 -1.168485,-1.997953 -2.021485,-2.751953 l -1.345703,0.820313 c -0.82,-0.627 -1.788984,-1.063094 -2.833984,-1.246094 l -0.308594,-1.544922 c -0.2805,-0.028 -0.563234,-0.04347 -0.849609,-0.04297 z m 0.36914,4.259765 c 1.762455,0.162559 3.226485,1.542344 3.427735,3.371094 0.229,2.087 -1.275235,3.966266 -3.365235,4.197265 -2.089,0.23 -3.969219,-1.276281 -4.199218,-3.363281 -0.23,-2.09 1.277234,-3.970218 3.365234,-4.199219 0.261125,-0.02875 0.519705,-0.02908 0.771484,-0.0059 z"
   id="Settings_2_"
   inkscape:connector-curvature="0"
   sodipodi:nodetypes="cccccccccccccccccccccccccccccccccccccc"
   transform="translate(0,128)" />
</svg>

<svg xmlns="http://www.w3.org/2000/svg" xml:space="preserve" width="64" height="64" viewBox="0 128 64 64"><path d="M27 14c-.934 0-1.635.104-2.512.293l-.217 2.5a10.45 10.45 0 0 0-4.273 2.47l-2.273-1.066c-1.221 1.342-2.158 3.036-2.725 4.805l2.06 1.35a10.4 10.4 0 0 0 0 4.935L15 30.723a12.8 12.8 0 0 0 2.725 4.715l2.273-1.065a10.4 10.4 0 0 0 4.273 2.47l.217 2.5a13 13 0 0 0 2.721.294c.936 0 1.844-.104 2.723-.293l.214-2.5a10.4 10.4 0 0 0 4.274-2.471l2.275 1.065a12.8 12.8 0 0 0 2.723-4.715l-2.059-1.438q.293-1.19.295-2.467c0-.852-.102-1.676-.295-2.468l2.059-1.44a12.8 12.8 0 0 0-2.723-4.713l-2.275 1.065a10.45 10.45 0 0 0-4.274-2.471l-.214-2.498A15 15 0 0 0 27 14m0 8a5 5 0 0 1 5 5 5 5 0 0 1-5 5 5 5 0 0 1-5-5 5 5 0 0 1 5-5" style="opacity:.98999999;vector-effect:none;fill:#fff;fill-opacity:1;stroke:none;stroke-width:2;stroke-linecap:butt;stroke-linejoin:miter;stroke-miterlimit:4;stroke-dasharray:none;stroke-dashoffset:0;stroke-opacity:1" transform="translate(0 128)"/><path d="M41.104 33.93a8 8 0 0 0-2.545.418l.037 1.574a6.5 6.5 0 0 0-2.494 1.832l-1.493-.506a8.05 8.05 0 0 0-1.375 3.127l1.385.756a6.54 6.54 0 0 0 .338 3.078l-1.184 1.039a8 8 0 0 0 2.024 2.75l1.344-.818a6.56 6.56 0 0 0 2.836 1.246l.306 1.543c.13.014.313.03.313.03 1 0 2.549-.225 3.082-.405l-.035-1.573a6.55 6.55 0 0 0 2.492-1.833l1.494.505a8 8 0 0 0 1.373-3.125l-1.385-.755a6.8 6.8 0 0 0 .016-1.56 6.6 6.6 0 0 0-.356-1.52l1.186-1.038a8 8 0 0 0-2.022-2.752l-1.345.82a6.5 6.5 0 0 0-2.834-1.245l-.309-1.545a8 8 0 0 0-.85-.043m.369 4.26a3.803 3.803 0 0 1 .062 7.568 3.805 3.805 0 1 1-.062-7.569" style="fill:#fff" transform="translate(0 128)"/></svg>
